X:113
T:Paddy Fahy's
T:Paddy Fahey's
R:reel
C:Paddy Fahy
Z:id:hn-reel-113
M:C|
K:Ddor
D2A,D FEFG | Add^c d2de | fedf edcA | dcAG FDCE |
D2A,D FEFG | Add^c d2de | fedf edcA | dcAG FDD2 :|
|: Ad~d2 fded | c2Gc EcGc | Ad~d2 fded | cBcd ed~d2 |
a2ge ABcA | dcAG FDCE | D2A,D FEFG | Add^c d4 :|
P:variations
|: D2A,D FEFG | Ad^ce dcde | f2df edcA | dcAG FDCE |
D2A,D FEFG | Ad^ce dcde | fagf edcA | dcAG FDD2 :|
|: Ad~d2 fdBd | cBcG EFGc | Ad~d2 adBd | cBcd edcA |
a2ga ABcA | dcAG FDCA, | D2A,D FEFG | Ad^ce d4 :|

